X: 35
T: The Bog O Gight Strathspey
T: Strathspey, A
L: 1/16
M: C
K: A
|: c2| e2>f2 e2<c2 A2>B2 A2<E2 | F2>E2 F2<A2 B4 B2>c2 | [1 e2>f2 e2<c2 A2>B2 A2<E2 | F2<A2 E2<C2 A,A,A,2 A,3:|]
[2 d2>e2 f2<e2 d2<c2 B2>A2 | F2<A2 G2b2 a2<e2 a2>b2 a2<e2 | f2>e2 f2<a2 b4 b2>e2|
[1 a2>b2 a2>e2 f2<a2 e2<c2 | B2>A2 B2<c2 AAA2 A3:|] [2  a2>e2 f2>a2 e2<a2 c2>A2 | B2>A2 B2<c2 AAA2 A3 |]
D: Kinnon and Betty Beaton, Saturday Night Lively, KB20M98
